X:4003
T:Dark Island, The
T:Dr. Mackay's Farewell to Creagorry
T:Eilean Dorcha; Away to the Westward
R:Air
C:Ian Maclachlan, 1958
O:Scotland
M:3/4
L:1/8
Q:1/4=100
K:G
DE|"Am"A3 E A2|"Em"G3 A G2|"C"E3 D C2|"G"D4 GA|"G"B3 A G2|"Em"G d3 D2|"Am"B3 d B2|"D7"A4 DE|
"Am"A3 E A2|"Em"G3 A G2|"C"E3 D C2|"G"D4 GA|"G"B3 D dB|"D7"A3 D BA|"C"G3 G G2|"G"G4 Bc||
"^CHORUS"
"G"d3 D D2|"Em"B3 A G2|"C"E C3 E2|"G"D4 GA|"G"B3 A G2|"Em"G d3 D2|"Am"B3 d B2|"D7"A4 DE|
"Am"A3 E A2|"Em"G3 A G2|"C"E3 D C2|"G"D4 GA|"G"B3 D dB|"D7"A3 D BA|"C"G3 G G2|"G"G4|]

